X:83
T:Saint Anne's
S:The Session: https://thesession.org/tunes/103#setting103
S:https://JamBuddy.live 2025
C:Traditional
R:reel
K:D
M:4/4
L:1/8
Q:120
|: fedf edcB| A2FA DAFA| B2GB EBGB| A2FA DAFA|
! fedf edcB| A2FA DAFA| BGed cABc| eddc d2 de:| ! |:
f2fg fedc| Bggf g2gf| edcB ABce| baa^g abag|
! f2fg fedc| Bggf g2gf| edcB ABcd| eddc d2 de:|

